X:1
T:Отверзу уста моя
T:Отверзу уста моя
T:П. Чесноков
C:П. Чесноков
%%score { ( 1 2 ) | ( 3 4 ) }
L:1/8
Q:1/4=130
M:9/4
K:C
V:1 treble nm="Piano" snm="Pno."
V:2 treble 
V:3 bass 
V:4 bass 
V:1
 A2 e4 e2 d2 e2 d2 A4 |[M:11/4] A2 A2 d2 d2 d2 (c4 B4) c4 | %2
w: От- вер- зу ус- та мо- я,|и на- пол- нят- ся Ду- * ха,|
[M:15/4] c2 d4 d2 d2 d2 d2 d2 c2 d2 e4 c2 c4 |[M:12/4] c2 c2 c2 c2 c2 c2 c2 B2 (c2 B2) A4 | %4
w: и сло- во от- рыг- ну Ца- ри- це Ма- те- ри,|и яв- лю- ся свет- ло тор- жест- ву- * я,|
[M:21/4] c2 c2 c2 c2 c2 c2 c2 c2 c2 c8 d4 d4 !fermata!e8 |] %5
w: и вос- по- ю, ра- ду- я- ся, То- я чу- де- са.|
V:2
 A2 A4 A2 B2 c2 B2 A4 |[M:11/4] A2 A2 A2 A2 A2 A8 A4 | %2
[M:15/4] A2 A4 A2 A2 A2 A2 A2 A2 A2 G4 E2 E4 |[M:12/4] E2 E2 E2 E2 E2 E2 E2 E2 E4 E4 | %4
[M:21/4] E2 E2 E2 E2 E2 E2 E2 E2 E2 A8 A4 A4 ^G8 |] %5
V:3
 A,2 E4 E2 D2 E2 D2 A,4 |[M:11/4] A,2 A,2 D2 D2 D2 (E4 F4) E4 | %2
[M:15/4] E2 D4 D2 D2 F2 F2 F2 F2 F2 E4 C2 C4 |[M:12/4] C2 C2 C2 C2 C2 C2 C2 B,2 (C2 B,2) A,4 | %4
[M:21/4] C2 C2 C2 C2 C2 C2 C2 C2 C2 C8 B,4 B,4 B,8 |] %5
V:4
 A,2 A,4 A,2 B,2 C2 B,2 A,4 |[M:11/4] A,2 G,2 F,2 F,2 F,2 (E,4 D,4) A,4 | %2
[M:15/4] G,2 F,4 F,2 F,2 G,2 G,2 G,2 G,2 G,2 C,4 C,2 C,4 | %3
[M:12/4] C,2 C,2 C,2 C,2 C,2 C,2 C,2 B,,2 (C,2 B,,2) A,,4 | %4
[M:21/4] A,2 A,2 A,2 A,2 A,2 A,2 A,2 A,2 G,2 F,8 F,4 F,4 !fermata!E,8 |] %5

